!!!COM: Schubert, Franz
!!!CNT: Deutscher
!!!TXO: Deutsch
!!!OTL: "Die Nebensonnen"
!!!OPR: Winterreise
!!!LYR: Mu2ller, Wilhelm
!!!OPS: Opus 89
!!!ONM: No. 23
!!!ODT: 1827/
!!NB: Vocal melody only encoded.
**kern	**silbe
*clefG2	*
*k[f#c#g#]	*
*M3/4	*
*MM[langsam]	*
=4	=4
4r	.
4r	.
8r	.
{8cc#	{Drei
=5	=5
8.cc#	Son-
16b	-nen
4b	sah
8b	ich
8cc#	am
=6	=6
8.dd	Him-
16cc#	-mel
4.cc#}	steh'n,}
{8cc#	{hab'
=7	=7
8.cc#	lang
16b	und
[4a	fest
12a]	|
12b	|
12cc#	sie
=8	=8
8.cc#	an-
16b	-ge-
4a}	-sehn.}
4r	.
=9	=9
4r	.
4r	.
8r	.
{8cc#	{Und
=10	=10
8.cc#	sie
16b	auch
4.b	stan-
8cc#	-den
=11	=11
8.dd	da
16cc#	so
4.cc#}	stier,}
{8cc#	{als
=12	=12
8.cc#	woll-
16b	-ten
[4a	sie
12a]	|
12b	|
12cc#	nicht
=13	=13
8.cc#	weg
16b	von
4a}	mir.}
4r	.
=15	=15
4r	.
4r	.
8r	.
{8a	{Ach,
=16	=16
8ccn	mei-
8ccn	-ne
8ccn	Son-
8ccn	-nen
12ccn	seid
12b	|
12a	ihr
=17	=17
2b}	nicht,}
8r	.
{8ee	{schaut
=18	=18
8.ee	an-
16ccn	-dern
8ccn	doch
8ccn	in's
8.dd	An-
16ccn	-ge-
=19	=19
2b}	-sicht!}
8r	.
{8ee	{Ja
=20	=20
8.ee	neu-
16dd	-lich
4.dd	hatt'
8ee	ich
=21	=21
8.ffn	auch
16ee	wohl
4.ee}	drei;}
{8ee	{nun
=22	=22
8.ee	sind
16dd	hin-
4.ccn	-ab
8ccn	die
=23	=23
8.ccn	be-
16b	-sten
4a}	zwei.}
4r	.
=25	=25
4r	.
4r	.
8r	.
{8cc#	{Ging'
=26	=26
8.cc#	nur
16b	die
4.b	dritt'
8cc#	erst
=27	=27
8.dd	hin-
16cc#	-ter-
4.cc#}	-drein!}
{8cc#	{im
=28	=28
8.cc#	Dun-
16b	-keln
([4a	wird
12a]	|
12b)	|
12cc#	mir
=29	=29
8.cc#	woh-
16b	-ler
4a}	sein.}
4r	.
*-	*-
